!!!OTL: WEINT MIT MIR IHR NAECHTLICH STILLEN HAINE
!!!ARE: Europa, Mitteleuropa, Deutschland, Thueringen
!!!SCT: B0139
!!!YEM: Copyright 1995, estate of Helmut Schaffrath.
**kern
*ICvox
*Ivox
*M4/4
*k[]
*C:
{8G
8G
=1
4.c
8E
8E
8E
8D
8E
=2
8G
8F
4F
4r}
{8G
8B
=3
4.d
8F
8F
8F
8A
8G
=4
8G
8c
4c
4r}
{8G
8G
=5
8.A
16B
4c
8r
8c
8B
8A
=6
8.G
16F
2E}
{8c
8e
=7
4.d
8d
8.c
16B
8.A
16B
=8
4c
2r}
==
!!!AGN: Ballade, Romanze
!!!ONB: ESAC (Essen Associative Code) Database: BOEHME
!!!AMT: simple quadruple
!!!AIN: vox
!!!EED: Helmut Schaffrath
!!!EEV: 1.0
*-
